_/img/pdf.svg

<svg class="svg-inline--fa fa-file-pdf pdf-file-icon icon" aria-hidden="true" data-prefix="fas" data-icon="file-pdf" viewBox="0 0 512 512" xmlns="http://www.w3.org/2000/svg"><path d="M0 64C0 28.7 28.7 0 64 0h160v128c0 17.7 14.3 32 32 32h128v144H176c-35.3 0-64 28.7-64 64v144H64c-35.3 0-64-28.7-64-64V64z" fill="#b3b3b3"/><path d="M416 368c0-8.8 7.2-16 16-16h48c8.8 0 16 7.2 16 16s-7.2 16-16 16h-32v32h32c8.8 0 16 7.2 16 16s-7.2 16-16 16h-32v48c0 8.8-7.2 16-16 16s-16-7.2-16-16V368zm-96 112v-96h16c8.8 0 16 7.2 16 16v64c0 8.8-7.2 16-16 16zm-32-112v128c0 8.8 7.2 16 16 16h32c26.5 0 48-21.5 48-48v-64c0-26.5-21.5-48-48-48h-32c-8.8 0-16 7.2-16 16zm-96 64v-48h16c13.3 0 24 10.7 24 24s-10.7 24-24 24zm-32-64v128c0 8.8 7.2 16 16 16s16-7.2 16-16v-32h16c30.9 0 56-25.1 56-56s-25.1-56-56-56h-32c-8.8 0-16 7.2-16 16z" fill="#969696"/><path d="M384 128H256V0l128 128z" fill="#b3b3b3"/></svg>

<?xml version="1.0" encoding="utf-8"?>
<svg class="svg-inline--fa fa-file-pdf pdf-file-icon icon" aria-hidden="true" focusable="false" data-prefix="fas" data-icon="file-pdf" role="img" viewBox="0 0 512 512" data-fa-i2svg="" xmlns="http://www.w3.org/2000/svg">
  <g>
    <path d="M 0 64 C 0 28.7 28.7 0 64 0 L 224 0 L 224 128 C 224 145.7 238.3 160 256 160 L 384 160 L 384 304 L 176 304 C 140.7 304 112 332.7 112 368 L 112 512 L 64 512 C 28.7 512 0 483.3 0 448 L 0 64 Z" fill="#b3b3b3"/>
    <path d="M 416 368 C 416 359.2 423.2 352 432 352 L 480 352 C 488.8 352 496 359.2 496 368 C 496 376.8 488.8 384 480 384 L 448 384 L 448 416 L 480 416 C 488.8 416 496 423.2 496 432 C 496 440.8 488.8 448 480 448 L 448 448 L 448 496 C 448 504.8 440.8 512 432 512 C 423.2 512 416 504.8 416 496 L 416 432 L 416 368 Z" style="fill: #969696;"/>
    <path d="M 320 480 L 320 384 L 336 384 C 344.8 384 352 391.2 352 400 L 352 464 C 352 472.8 344.8 480 336 480 Z M 288 368 L 288 496 C 288 504.8 295.2 512 304 512 L 336 512 C 362.5 512 384 490.5 384 464 L 384 400 C 384 373.5 362.5 352 336 352 L 304 352 C 295.2 352 288 359.2 288 368 Z" style="fill: #969696;"/>
    <path d="M 192 432 L 192 384 L 208 384 C 221.3 384 232 394.7 232 408 C 232 421.3 221.3 432 208 432 Z M 160 368 L 160 496 C 160 504.8 167.2 512 176 512 C 184.8 512 192 504.8 192 496 L 192 464 L 208 464 C 238.9 464 264 438.9 264 408 C 264 377.1 238.9 352 208 352 L 176 352 C 167.2 352 160 359.2 160 368 Z" style="fill: #969696;"/>
    <path d="M 384 128 L 256 128 L 256 0 L 384 128 Z" fill="#b3b3b3"/>
  </g>
</svg>
